projects/vfh1/img/logo.svg

<svg width="269" height="45" viewBox="0 0 269 45" fill="none" xmlns="http://www.w3.org/2000/svg">
<path fill-rule="evenodd" clip-rule="evenodd" d="M137.974 3.09367L132.14 6.15714L138.411 6.32449C141.861 6.41641 147.505 6.41641 150.955 6.32449L157.226 6.15714L151.257 3.06362C147.974 1.36189 144.955 -0.0163522 144.548 0.0001466C144.141 0.0166454 141.183 1.40903 137.974 3.09367ZM132.432 14.7012V21.7721H137.974H143.516V18.8259V15.8796H140.599C138.395 15.8796 137.682 15.6634 137.682 14.9958C137.682 14.2557 138.914 14.1119 145.266 14.1119C151.619 14.1119 152.851 14.2557 152.851 14.9958C152.851 15.6746 152.105 15.8796 149.642 15.8796H146.433V18.8482V21.8163L151.83 21.6471L157.226 21.4774L157.391 14.5538L157.555 7.63025H144.993H132.432V14.7012ZM94.5468 11.653C92.3918 12.8203 90.4269 15.9132 90.4269 18.1382C90.4269 22.0148 93.7213 25.0854 99.0717 26.1955C101.249 26.6475 101.996 27.8377 100.922 29.1453C99.8546 30.4445 96.881 30.1971 94.0731 28.5755L91.5937 27.1436V30.3349C91.5937 33.3342 91.708 33.5881 93.4897 34.5433C96.2912 36.0453 102.114 35.9693 104.238 34.4025C106.59 32.6677 108.137 29.2607 107.682 26.8148C107.102 23.6936 105.327 21.9282 101.632 20.7975C97.4096 19.5047 96.6092 18.9378 97.4918 17.8636C98.4387 16.7117 102.065 16.8696 104.597 18.173L106.762 19.2878V15.8802V12.4721L104.417 11.5245C101.294 10.2624 97.0111 10.3184 94.5468 11.653ZM113.337 11.4179C109.663 13.0931 108.062 18.0433 109.981 21.7915C110.989 23.7608 112.956 24.9369 116.933 25.9486C120.04 26.7388 120.925 28.0045 119.254 29.2678C117.78 30.3821 114.08 29.8906 111.947 28.2979C111.047 27.6256 110.168 27.0752 109.994 27.0752C109.821 27.0752 109.679 28.3598 109.679 29.9301C109.679 33.3053 110.542 34.3088 114.322 35.3258C120.894 37.0941 126.014 33.7349 126.014 27.6551C126.014 23.5027 124.547 22.0791 118.355 20.2218C116.659 19.7133 115.513 19.0268 115.513 18.5194C115.513 16.6592 121.184 16.7405 124.058 18.642L125.431 19.5506V16.2556C125.431 13.3418 125.252 12.8421 123.886 11.9382C121.831 10.5782 115.828 10.2824 113.337 11.4179ZM191.938 11.8592C188.249 13.7825 186.688 17.0357 186.688 22.7997C186.688 29.7651 189.135 33.9541 194.008 35.3323C199.235 36.8107 204.638 34.6912 206.815 30.3084C207.723 28.48 207.982 26.783 207.982 22.6559C207.982 14.261 205.569 11.2152 198.555 10.7532C195.198 10.5323 194.146 10.7084 191.938 11.8592ZM237.102 11.382C236.113 11.8351 234.709 12.9658 233.982 13.8951C232.878 15.3075 232.704 16.1094 232.921 18.7781C233.232 22.6058 234.606 24.0772 239.304 25.6122C243.389 26.9474 244.263 27.7635 242.986 29.0533C241.628 30.4251 239.218 30.2548 236.072 28.5648L233.36 27.1082V30.2059C233.36 33.0024 233.525 33.4014 235.062 34.3182C241.371 38.0823 249.686 34.5681 249.693 28.1341C249.697 23.8491 247.903 21.9818 242.116 20.2459C239.214 19.3756 238.321 18.1117 240.117 17.4158C241.772 16.7741 244.105 17.0623 246.632 18.2207L249.111 19.3573V16.1589C249.111 13.35 248.924 12.8362 247.567 11.9382C245.548 10.6024 239.508 10.2812 237.102 11.382ZM0 23.2452V35.3246H2.917H5.83399V30.9053V26.486H11.0846H16.3352V23.5398V20.5936H11.0846H5.83399V18.8259V17.0581H11.0846H16.3352V14.1119V11.1657H8.16759H0V23.2452ZM18.6688 23.2452V35.3246H21.8775H25.0862V23.2452V11.1657H21.8775H18.6688V23.2452ZM27.4198 14.1119V17.0581H30.6285H33.8372V26.222V35.3865L36.9 35.208L39.9628 35.03L40.1239 26.0441L40.2849 17.0581H43.1867H46.0885V14.1119V11.1657H36.7542H27.4198V14.1119ZM48.4221 23.2216V35.3246H51.6308H54.8395L54.8658 27.5172L54.8914 19.7097L58.1632 27.5419L61.4343 35.3741L65.2835 35.2021L69.1328 35.03L69.2909 23.0979L69.4484 11.1657H66.2281H63.0071L62.9762 18.0893L62.9447 25.0129L60.4192 18.2366L57.893 11.4603L53.1576 11.2894L48.4221 11.118V23.2216ZM72.3415 23.2452V35.3246H80.5091H88.6767V32.0838V28.843H83.7178C78.8172 28.843 78.7589 28.8259 78.7589 27.3699C78.7589 25.9138 78.8172 25.8968 83.7178 25.8968H88.6767V22.9505V20.0043H83.7178C78.8172 20.0043 78.7589 19.9872 78.7589 18.5312C78.7589 17.0752 78.8172 17.0581 83.7178 17.0581H88.6767V14.1119V11.1657H80.5091H72.3415V23.2452ZM164.519 23.2452V35.3246H167.436H170.353V30.6107V25.8968H173.853H177.353V30.6107V35.3246H180.562H183.771V23.2452V11.1657H180.562H177.353V15.585V20.0043H173.853H170.353V15.585V11.1657H167.436H164.519V23.2452ZM211.193 20.4463C211.195 28.6055 211.332 29.9543 212.332 31.6101C214.112 34.5592 216.155 35.5986 220.193 35.6098C224.714 35.6222 227.179 34.5545 228.833 31.867C230.027 29.9289 230.17 28.8512 230.358 20.4463L230.565 11.1657H227.295H224.025V19.1205C224.025 26.2898 223.91 27.1919 222.859 28.2537C221.485 29.6408 220.019 29.7551 218.449 28.5967C217.439 27.8513 217.295 26.8608 217.114 19.4634L216.913 11.1657H214.052H211.191L211.193 20.4463ZM252.028 23.2452V35.3246H260.196H268.364V32.0838V28.843H263.072C257.919 28.843 257.786 28.8082 257.967 27.5172C258.142 26.2733 258.469 26.1808 263.259 26.0211L268.364 25.8508V22.9276V20.0043H263.113C257.902 20.0043 257.862 19.9931 257.862 18.5312C257.862 17.0693 257.902 17.0581 263.113 17.0581H268.364V14.1119V11.1657H260.196H252.028V23.2452ZM200.099 18.1123C201.503 19.2607 202.296 23.4579 201.622 26.1713C200.693 29.9054 197.071 31.1345 194.537 28.5749C193.33 27.3563 193.105 26.565 193.105 23.5398C193.105 20.5146 193.33 19.7233 194.537 18.5047C196.229 16.7959 198.31 16.6492 200.099 18.1123ZM132.432 30.0215V37.0924H144.975H157.518V30.0215V22.9505H151.975H146.433V26.1914V29.4322H149.642C152.105 29.4322 152.851 29.6373 152.851 30.3161C152.851 31.0562 151.619 31.1999 145.266 31.1999C138.914 31.1999 137.682 31.0562 137.682 30.3161C137.682 29.6485 138.395 29.4322 140.599 29.4322H143.516V26.1914V22.9505H137.974H132.432V30.0215ZM148.038 32.8115C146.513 32.9329 144.02 32.9329 142.495 32.8115C140.971 32.6901 142.218 32.5906 145.266 32.5906C148.315 32.5906 149.562 32.6901 148.038 32.8115ZM132.635 38.7128C132.785 38.9556 135.557 40.4699 138.795 42.0774L144.683 45L150.571 42.0774C153.809 40.4699 156.581 38.9556 156.731 38.7128C156.881 38.47 151.459 38.2709 144.683 38.2709C137.907 38.2709 132.485 38.47 132.635 38.7128Z" fill="white"/>
</svg>

<svg width="269" height="45" fill="none" xmlns="http://www.w3.org/2000/svg"><path fill-rule="evenodd" clip-rule="evenodd" d="M137.974 3.094l-5.834 3.063 6.271.167c3.45.092 9.094.092 12.544 0l6.271-.167-5.969-3.093c-3.283-1.702-6.302-3.08-6.709-3.064-.407.017-3.365 1.409-6.574 3.094zM132.432 14.7v7.071h11.084V15.88h-2.917c-2.204 0-2.917-.217-2.917-.884 0-.74 1.232-.884 7.584-.884 6.353 0 7.585.144 7.585.884 0 .679-.746.884-3.209.884h-3.209v5.936l5.397-.169 5.396-.17.165-6.923.164-6.924h-25.123v7.071zm-37.885-3.048c-2.155 1.167-4.12 4.26-4.12 6.485 0 3.877 3.294 6.947 8.645 8.057 2.177.453 2.924 1.643 1.85 2.95-1.067 1.3-4.041 1.052-6.849-.57l-2.48-1.431v3.19c0 3 .115 3.254 1.897 4.21 2.801 1.501 8.624 1.425 10.748-.141 2.352-1.735 3.899-5.142 3.444-7.588-.58-3.121-2.355-4.887-6.05-6.018-4.222-1.292-5.023-1.86-4.14-2.933.947-1.152 4.573-.994 7.105.309l2.165 1.115v-6.816l-2.345-.947c-3.123-1.263-7.406-1.207-9.87.128zm18.79-.235c-3.674 1.675-5.275 6.625-3.356 10.373 1.008 1.97 2.975 3.146 6.952 4.158 3.107.79 3.992 2.055 2.321 3.319-1.474 1.114-5.174.623-7.307-.97-.9-.672-1.779-1.223-1.953-1.223-.173 0-.315 1.285-.315 2.855 0 3.375.863 4.379 4.643 5.396 6.572 1.768 11.692-1.591 11.692-7.67 0-4.153-1.467-5.577-7.659-7.434-1.696-.509-2.842-1.195-2.842-1.703 0-1.86 5.671-1.778 8.545.123l1.373.909v-3.295c0-2.914-.179-3.414-1.545-4.318-2.055-1.36-8.058-1.656-10.549-.52zm78.601.441c-3.689 1.924-5.25 5.177-5.25 10.94 0 6.966 2.447 11.155 7.32 12.533 5.227 1.479 10.63-.64 12.807-5.024.908-1.828 1.167-3.525 1.167-7.652 0-8.395-2.413-11.44-9.427-11.903-3.357-.22-4.409-.045-6.617 1.106zm45.164-.477c-.989.453-2.393 1.584-3.12 2.513-1.104 1.412-1.278 2.214-1.061 4.883.311 3.828 1.685 5.3 6.383 6.834 4.085 1.335 4.959 2.152 3.682 3.441-1.358 1.372-3.768 1.202-6.914-.488l-2.712-1.457v3.098c0 2.796.165 3.195 1.702 4.112 6.309 3.764 14.624.25 14.631-6.184.004-4.285-1.79-6.152-7.577-7.888-2.902-.87-3.795-2.134-1.999-2.83 1.655-.642 3.988-.354 6.515.805l2.479 1.136V16.16c0-2.809-.187-3.323-1.544-4.22-2.019-1.337-8.059-1.658-10.465-.557zM0 23.245v12.08h5.834v-8.839h10.501v-5.892H5.834v-3.536h10.501v-5.892H0v12.08zm18.669 0v12.08h6.417v-24.16h-6.418v12.08zm8.75-9.133v2.946h6.418v18.328l3.063-.178 3.063-.178.16-8.986.162-8.986h5.804v-5.892H27.42v2.946zm21.003 9.11v12.103h6.418l.026-7.808.025-7.807 3.272 7.832 3.271 7.832 3.85-.172 3.849-.172.158-11.932.157-11.932h-6.44l-.032 6.923-.031 6.924-2.526-6.776-2.526-6.777-4.735-.17-4.736-.172v12.104zm23.92.023v12.08h16.335v-6.482h-4.96c-4.9 0-4.958-.017-4.958-1.473 0-1.456.058-1.473 4.959-1.473h4.959v-5.893h-4.96c-4.9 0-4.958-.017-4.958-1.473 0-1.456.058-1.473 4.959-1.473h4.959v-5.892H72.34v12.08zm92.177 0v12.08h5.834v-9.428h7v9.428h6.418v-24.16h-6.418v8.84h-7v-8.84h-5.834v12.08zm46.674-2.799c.002 8.16.139 9.508 1.139 11.164 1.78 2.95 3.823 3.989 7.861 4 4.521.012 6.986-1.056 8.64-3.743 1.194-1.938 1.337-3.016 1.525-11.42l.207-9.281h-6.54v7.954c0 7.17-.115 8.072-1.166 9.134-1.374 1.387-2.84 1.501-4.41.343-1.01-.746-1.154-1.736-1.335-9.134l-.201-8.297h-5.722l.002 9.28zm40.835 2.8v12.079h16.336v-6.482h-5.292c-5.153 0-5.286-.035-5.105-1.326.175-1.244.502-1.336 5.292-1.496l5.105-.17v-5.847h-5.251c-5.211 0-5.251-.01-5.251-1.473 0-1.462.04-1.473 5.251-1.473h5.251v-5.892h-16.336v12.08zm-51.929-5.134c1.404 1.149 2.197 5.346 1.523 8.06-.929 3.733-4.551 4.962-7.085 2.403-1.207-1.219-1.432-2.01-1.432-5.035 0-3.025.225-3.817 1.432-5.035 1.692-1.71 3.773-1.856 5.562-.393zm-67.667 11.91v7.07h25.086V22.951h-11.085v6.481h3.209c2.463 0 3.209.205 3.209.884 0 .74-1.232.884-7.585.884-6.352 0-7.584-.144-7.584-.884 0-.668.713-.884 2.917-.884h2.917v-6.481h-11.084v7.07zm15.606 2.79c-1.525.12-4.018.12-5.543 0-1.524-.122-.277-.221 2.771-.221 3.049 0 4.296.1 2.772.22zm-15.403 5.9c.15.244 2.922 1.758 6.16 3.365L144.683 45l5.888-2.923c3.238-1.607 6.01-3.121 6.16-3.364.15-.243-5.272-.442-12.048-.442s-12.198.199-12.048.442z" fill="#fff"/></svg>
